X:1
T:Title
%%score 1 { 2 | 3 }
L:1/8
Q:1/4=110
M:4/4
K:Bb
V:1 treble nm="Grand Piano, Soprano"
V:2 bass nm="Choir Pad, Lombardia, George F. Root"
V:3 bass 
V:1
 [DF]2 [DF]2- [DF][EG] [DF]2 | [DB]2 [Ec]2- [Ec][EB] [EG]2 | [EB]2 [DF]2- [DF][DF] [EG]2 | %3
w: By~George~Frederick~Root,~1881 * * * *|||
 [EA]2 [DB]6 | [Fd]2 [Fd]2- [Fd][Ge] [Fd]2 | [Ec]2 [DB]2- [DB][Ec] [DB]2 | %6
w: |||
 [DA]2 [=EG]2- [EG][EB] [EA]2 | [=EG]2 F6 | F2 [FA]2- [FA][FB] [Fc]2 | %9
w: |||
 [FA]2 [FB]2- [FB][Fc] [Fd]2 | [Fd]2 [Fe]2 [Fd]2 [Gc]2 | [GB]2 [Fc]6 | %12
w: |||
 [EF]2 [DF]2- [DF][EG] [DF]2 | [DB]2 [Ec]2- [Ec][EB] [EG]2 | [EB]2 [DF]2- [DF][DF] [EG]2 | %15
w: |||
 [EA]2 [DB]6- | [DB]2 z2 z4 |] %17
w: ||
V:2
 B,2 B,2- B,B, B,2 | F,2 G,2- G,G, B,2 | G,2 F,2- F,/ z/ F, F,2 | C2 B,6 | B,2 B,2- B,B, B,2 | %5
 B,2 B,2- B,B, B,2 | B,2 B,2- B,G, C2 | B,2 A,6 | A,2[K:treble] C2- CD E2 | C2 D2- DC[K:bass] B,2 | %10
 B,2 B,2 B,2 G,2 | B,2 A,6 | A,2 B,2- B,B, B,2 | F,2 G,2- G,G, B,2 | G,2 F,2- F,/ z/ F, F,2 | %15
 C2 B,6- | B,2 z2 z4 |] %17
V:3
 B,,2 B,,2- B,,B,, B,,2 | B,,2 E,2- E,E, E,2 | E,2 z2 z4 | F,2 B,,6 | B,,2 B,,2- B,,B,, B,,2 | %5
 B,,2 B,,2- B,,B,, B,,2 | B,,2 C,2- C,C, C,2 | C,2 F,6 | F,2 F,2- F,F, F,2 | %9
 F,2 B,,2- B,,B,, B,,2 | B,,2 C,2 D,2 E,2 | =E,2 F,6 | F,2 B,,2- B,,B,, B,,2 | B,,2 E,2- E,E, E,2 | %14
 E,2 z2 z4 | F,2 B,,6- | B,,2 z2 z4 |] %17

